contributed-vectors/samsung_usb_backup.svg

<svg xmlns="http://www.w3.org/2000/svg" xml:space="preserve" style="fill-rule:evenodd;clip-rule:evenodd;stroke-linejoin:round;stroke-miterlimit:2" viewBox="0 0 192 192"><path d="M164.5 21.5c0-5.519-4.481-10-10-10h-133c-5.519 0-10 4.481-10 10v133c0 5.519 4.481 10 10 10h133c5.519 0 10-4.481 10-10v-133Z" style="fill:#96dfd3" transform="translate(8 8)"/><path d="M109.321 59.019c21.416 0 38.803 17.387 38.803 38.803 0 21.416-17.387 38.803-38.803 38.803-21.416 0-38.802-17.387-38.802-38.803 0-21.416 17.386-38.803 38.802-38.803Zm0 5.211c18.54 0 33.592 15.052 33.592 33.592s-15.052 33.592-33.592 33.592c-18.539 0-33.591-15.052-33.591-33.592S90.782 64.23 109.321 64.23Z" style="fill:#fff" transform="translate(-.134 -.86)"/><path d="M110.507 109.354c5.132 0 9.299 4.167 9.299 9.3 0 5.133-4.167 9.3-9.299 9.3-5.133 0-9.3-4.167-9.3-9.3 0-5.133 4.167-9.3 9.3-9.3Zm0 4.848a4.454 4.454 0 0 1 4.452 4.452 4.454 4.454 0 0 1-4.452 4.452 4.454 4.454 0 0 1-4.453-4.452 4.454 4.454 0 0 1 4.453-4.452Z" style="fill:#fff" transform="translate(-1.072 -.982)"/><path d="M110.507 109.354c5.132 0 9.299 4.167 9.299 9.3 0 5.133-4.167 9.3-9.299 9.3-5.133 0-9.3-4.167-9.3-9.3 0-5.133 4.167-9.3 9.3-9.3Zm0 4.848a4.454 4.454 0 0 1 4.452 4.452 4.454 4.454 0 0 1-4.452 4.452 4.454 4.454 0 0 1-4.453-4.452 4.454 4.454 0 0 1 4.453-4.452Z" style="fill:#fff" transform="matrix(.73417 0 0 .73417 8.247 6.63)"/><path d="M134.897 84.769h-12v12h12v-12Zm-4.431 4.432h-3.138v3.137h3.138v-3.137ZM108.007 77.512l-4.993 4.993-3.536-3.536 11.02-11.019.001.001.016-.016 11.02 11.02-3.536 3.536-4.992-4.993v35.324h-5v-35.31Z" style="fill:#fff" transform="translate(-1.072 -.982)"/><path d="M106.979 97.818h17.284v5.224h-17.284z" style="fill:#fff" transform="matrix(.96593 -.25882 .22423 .83683 -17.56 41.556)"/><path d="M106.979 97.818h17.284v5.224h-17.284z" style="fill:#fff" transform="matrix(.9063 .42262 -.36613 .78518 33.925 -28.336)"/><path d="M71.765 69.445a46.579 46.579 0 0 0-3.811 6.112H45.98v-6.456h25.785v.344ZM64.883 110.965a46.223 46.223 0 0 0 2.592 6.456H45.999v-6.456h18.884ZM63.261 89.934a46.669 46.669 0 0 0-.525 6.455H45.98v-6.455h17.281Z" style="fill:#fff"/></svg>

<?xml version="1.0" encoding="UTF-8" standalone="no"?>
<!DOCTYPE svg PUBLIC "-//W3C//DTD SVG 1.1//EN" "http://www.w3.org/Graphics/SVG/1.1/DTD/svg11.dtd">
<svg width="100%" height="100%" viewBox="0 0 192 192" version="1.1" xmlns="http://www.w3.org/2000/svg" xmlns:xlink="http://www.w3.org/1999/xlink" xml:space="preserve" xmlns:serif="http://www.serif.com/" style="fill-rule:evenodd;clip-rule:evenodd;stroke-linejoin:round;stroke-miterlimit:2;">
    <g id="Layer1">
        <g transform="matrix(1,0,0,1,8,8)">
            <path d="M164.5,21.5C164.5,15.981 160.019,11.5 154.5,11.5L21.5,11.5C15.981,11.5 11.5,15.981 11.5,21.5L11.5,154.5C11.5,160.019 15.981,164.5 21.5,164.5L154.5,164.5C160.019,164.5 164.5,160.019 164.5,154.5L164.5,21.5Z" style="fill:rgb(150,223,211);"/>
        </g>
        <g transform="matrix(1,0,0,1,-0.133739,-0.859757)">
            <path d="M109.321,59.019C130.737,59.019 148.124,76.406 148.124,97.822C148.124,119.238 130.737,136.625 109.321,136.625C87.905,136.625 70.519,119.238 70.519,97.822C70.519,76.406 87.905,59.019 109.321,59.019ZM109.321,64.23C127.861,64.23 142.913,79.282 142.913,97.822C142.913,116.362 127.861,131.414 109.321,131.414C90.782,131.414 75.73,116.362 75.73,97.822C75.73,79.282 90.782,64.23 109.321,64.23Z" style="fill:white;"/>
        </g>
        <g transform="matrix(1,0,0,1,-1.07171,-0.982241)">
            <path d="M110.507,109.354C115.639,109.354 119.806,113.521 119.806,118.654C119.806,123.787 115.639,127.954 110.507,127.954C105.374,127.954 101.207,123.787 101.207,118.654C101.207,113.521 105.374,109.354 110.507,109.354ZM110.507,114.202C112.964,114.202 114.959,116.197 114.959,118.654C114.959,121.111 112.964,123.106 110.507,123.106C108.049,123.106 106.054,121.111 106.054,118.654C106.054,116.197 108.049,114.202 110.507,114.202Z" style="fill:white;"/>
            <g transform="matrix(0.734169,0,0,0.734169,9.31875,7.61305)">
                <path d="M110.507,109.354C115.639,109.354 119.806,113.521 119.806,118.654C119.806,123.787 115.639,127.954 110.507,127.954C105.374,127.954 101.207,123.787 101.207,118.654C101.207,113.521 105.374,109.354 110.507,109.354ZM110.507,114.202C112.964,114.202 114.959,116.197 114.959,118.654C114.959,121.111 112.964,123.106 110.507,123.106C108.049,123.106 106.054,121.111 106.054,118.654C106.054,116.197 108.049,114.202 110.507,114.202Z" style="fill:white;"/>
            </g>
            <path d="M134.897,84.769L122.897,84.769L122.897,96.769L134.897,96.769L134.897,84.769ZM130.466,89.201L127.328,89.201L127.328,92.338L130.466,92.338L130.466,89.201Z" style="fill:white;"/>
            <path d="M108.007,77.512L103.014,82.505L99.478,78.969L110.498,67.95L110.499,67.951L110.515,67.935L121.535,78.955L117.999,82.491L113.007,77.498L113.007,112.822L108.007,112.822L108.007,77.512Z" style="fill:white;"/>
            <g transform="matrix(0.965926,-0.258819,0.224228,0.83683,-16.4889,42.538)">
                <rect x="106.979" y="97.818" width="17.284" height="5.224" style="fill:white;"/>
            </g>
            <g transform="matrix(0.906308,0.422618,-0.366135,0.78518,34.9965,-27.3539)">
                <rect x="106.979" y="97.818" width="17.284" height="5.224" style="fill:white;"/>
            </g>
        </g>
        <path d="M71.765,69.445C70.344,71.374 69.069,73.416 67.954,75.557L45.98,75.557L45.98,69.101L71.765,69.101L71.765,69.445Z" style="fill:white;"/>
        <path d="M64.883,110.965C65.588,113.193 66.456,115.349 67.475,117.421L45.999,117.421L45.999,110.965L64.883,110.965Z" style="fill:white;"/>
        <path d="M63.261,89.934C62.941,92.041 62.762,94.197 62.736,96.389L45.98,96.389L45.98,89.934L63.261,89.934Z" style="fill:white;"/>
    </g>
</svg>
